X: 1
T: Hickey's
M: 6/8
L: 1/8
R: jig
K: Dmaj
A,3 FDB,|DFA BAF|E3 EDB,|A,FD EDB,|
A,3 FDB,|DFA BAF|E3 EDB,|1A,FE DCB,:|2A,FE Dde||
fed BAF|E3 EDB,|A,DD FAA|BAF Ede|
fed BAF|E3 EDB,|G2E FAF|EDC D2e|
fed BAF|E3 EDB,|A,DD FAA|BAF Ede|
fed e/2e/2ec|dAF A,DF|GFG B,DG|CEA DCB,|
